ix/battery-empty-1_broken.svg

<svg viewBox="0 0 24 24" fill="none" xmlns="http://www.w3.org/2000/svg" height="1em" width="1em">
  <path d="M10.99 5H13C17 5 18 6 18 10V14C18 18 17 19 13 19H7C3 19 2 18 2 14V10C2 6 3 5 7 5" stroke="#292D32" stroke-width="1.5" stroke-linecap="round" stroke-linejoin="round"/>
  <path d="M20.5 9.5C22 9.5 22 10 22 11V13C22 14 22 14.5 20.5 14.5" stroke="#292D32" stroke-width="1.5" stroke-linecap="round" stroke-linejoin="round"/>
  <path d="M6.38086 10C6.62086 10.98 6.69086 11.99 6.57086 12.99C6.53086 13.33 6.47086 13.67 6.38086 14" stroke="#292D32" stroke-width="1.5" stroke-linecap="round" stroke-linejoin="round"/>
</svg>

<svg viewBox="0 0 24 24" fill="none" xmlns="http://www.w3.org/2000/svg" height="1em" width="1em">
  <path d="M10.99 5H13c4 0 5 1 5 5v4c0 4-1 5-5 5H7c-4 0-5-1-5-5v-4c0-4 1-5 5-5m13.5 4.5C22 9.5 22 10 22 11v2c0 1 0 1.5-1.5 1.5" stroke="#292D32" stroke-width="1.5" stroke-linecap="round" stroke-linejoin="round"/>
  <path d="M6.38 10c.24.98.31 1.99.19 2.99-.04.34-.1.68-.19 1.01" stroke="#292D32" stroke-width="1.5" stroke-linecap="round" stroke-linejoin="round"/>
</svg>
